src/images/header-nav__menu-button.svg

<svg xmlns="http://www.w3.org/2000/svg" width="44" height="44" fill="none"><path fill="#fff" fill-rule="evenodd" d="M36 14H8v-3h28v3ZM36 24H8v-3h28v3ZM36 34H8v-3h28v3Z" clip-rule="evenodd"/></svg>

<svg width="44" height="44" viewBox="0 0 44 44" fill="none" xmlns="http://www.w3.org/2000/svg">
<path fill-rule="evenodd" clip-rule="evenodd" d="M36 14L8 14V11L36 11V14Z" fill="black"/>
<path fill-rule="evenodd" clip-rule="evenodd" d="M36 24L8 24V21L36 21V24Z" fill="black"/>
<path fill-rule="evenodd" clip-rule="evenodd" d="M36 34L8 34V31L36 31V34Z" fill="black"/>
</svg>
